X: 1
T: Green Ship, The
C: Trad
R: Rant
M: 4/4
L: 1/8
K: Em
Z: ABC transcription by Verge Roller
r: 32
|: dc | "Em" B2 e2 fgfe | "Em" B2 e2 g4 | "G" B2 Bc d2 d2 | "C" cBce "D" d2 dc |
"Em" B2 e2 fgfe | "Em" B2 e2 g4 | "G" gbag "B7" fagf | "Em" g2 e2 e2 :|
|: dc | "G" B2 G2 G3A | "G" B2 G2 BdcB | "Am" c2 A2 A3B | "Am" c2 A2 "D" cedc|
"G" B2 G2 G3A | "G" B2 GB "Em" g4 | "G" gbag "B7" fagf | "Em" g2 e2 e2 :|
